svgs/light/message-medical.svg

<svg xmlns="http://www.w3.org/2000/svg" viewBox="0 0 512 512"><!--! Font Awesome Pro 6.6.0 by @fontawesome - https://fontawesome.com License - https://fontawesome.com/license (Commercial License) Copyright 2024 Fonticons, Inc. --><path d="M192 416c0-17.7-14.3-32-32-32l-96 0c-17.7 0-32-14.3-32-32L32 64c0-17.7 14.3-32 32-32l384 0c17.7 0 32 14.3 32 32l0 288c0 17.7-14.3 32-32 32l-138.7 0c-6.9 0-13.7 2.2-19.2 6.4L192 464l0-48zM64 0C28.7 0 0 28.7 0 64L0 352c0 35.3 28.7 64 64 64l64 0 32 0 0 32 0 48c0 6.1 3.4 11.6 8.8 14.3s11.9 2.1 16.8-1.5L309.3 416 448 416c35.3 0 64-28.7 64-64l0-288c0-35.3-28.7-64-64-64L64 0zM240 96c-17.7 0-32 14.3-32 32l0 32-32 0c-17.7 0-32 14.3-32 32l0 32c0 17.7 14.3 32 32 32l32 0 0 32c0 17.7 14.3 32 32 32l32 0c17.7 0 32-14.3 32-32l0-32 32 0c17.7 0 32-14.3 32-32l0-32c0-17.7-14.3-32-32-32l-32 0 0-32c0-17.7-14.3-32-32-32l-32 0zm0 32l32 0 0 48c0 8.8 7.2 16 16 16l48 0 0 32-48 0c-8.8 0-16 7.2-16 16l0 48-32 0 0-48c0-8.8-7.2-16-16-16l-48 0 0-32 48 0c4.2 0 8.3-1.7 11.3-4.7s4.7-7.1 4.7-11.3l0-48z"/></svg>

<svg xmlns="http://www.w3.org/2000/svg" viewBox="0 0 512 512"><!--! Font Awesome Pro 6.4.2 by @fontawesome - https://fontawesome.com License - https://fontawesome.com/license (Commercial License) Copyright 2023 Fonticons, Inc. --><path d="M192 416c0-17.7-14.3-32-32-32H64c-17.7 0-32-14.3-32-32V64c0-17.7 14.3-32 32-32H448c17.7 0 32 14.3 32 32V352c0 17.7-14.3 32-32 32H309.3c-6.9 0-13.7 2.2-19.2 6.4L192 464V416zM64 0C28.7 0 0 28.7 0 64V352c0 35.3 28.7 64 64 64h64 32v32 48c0 6.1 3.4 11.6 8.8 14.3s11.9 2.1 16.8-1.5L309.3 416H448c35.3 0 64-28.7 64-64V64c0-35.3-28.7-64-64-64H64zM240 96c-17.7 0-32 14.3-32 32v32H176c-17.7 0-32 14.3-32 32v32c0 17.7 14.3 32 32 32h32v32c0 17.7 14.3 32 32 32h32c17.7 0 32-14.3 32-32V256h32c17.7 0 32-14.3 32-32V192c0-17.7-14.3-32-32-32H304V128c0-17.7-14.3-32-32-32H240zm0 32h32v48c0 8.8 7.2 16 16 16h48v32H288c-8.8 0-16 7.2-16 16v48H240V240c0-8.8-7.2-16-16-16H176V192h48c4.2 0 8.3-1.7 11.3-4.7s4.7-7.1 4.7-11.3V128z"/></svg>
